X: 26402
T: Merry Maid's Wedding, The
R: strathspey
M: 4/4
K: Adorian
|:A>f|e>A (3AAA e>d (3Bcd|e<AA>B G>AB>d|
e>AA<f e>dB<d|e<gd>B A2-:|
|:A<g|e>de<g a>ba>g|e<gd<B e>gd>g|
[1 e>d (3efg a>ba>g|e<gd>B A2-:|
2 e>de>f g>ab>a|g<ed>B A2||

